X: 1435
T: Ne Dane
C: Dellalzâde İsmail Efendi
O: Turkey
F: http://compmusic.upf.edu/node/140
N: karcigar--agirsemai--aksaksemai--ne_dane--dellalzade_haci_ismail_efendi
N: makam= karcigar
N: form= agirsemai
N: usul= aksaksemai = 10/8
M: 10/8
L: 1/16
K: C _2/4B _3/4e ^3/4f 
Q: 1/4=108
%%MIDI tuningsystem comma53
_7/8e4 ede4de ^fgfe d4  | ^f_7/8eed c2f2 eddc c_1/4BcB A4  | 
w:   |   | 
d2_7/8e2 ^f2ed c2ed c_1/4Bc4B2  | \
w:   | 
c2d2 _7/8e2^f2 g2a_1/4b c'd'c'_b agfe  | 
w:   | 
d2c'2 _baag g^ff_7/8e edd4z2  | _7/8e4 ede4de ^fgfe d4  | 
w:   |   | 
^f_7/8eed c2f2 eddc c_1/4BcB A4  | \
w:   | 
d2_7/8e2 ^f2ed c2ed c_1/4Bc4B2  | 
w:   | 
A2_1/4B2 c2d2 _7/8e2^fg a_bag fedc  | \
w:   | 
c3_1/4B ^f_7/8edc2BBA BAA4z2  | 
w:   | 
=e2dc c2c3_1/4BBA G2c4e2  | d3c c2c3_1/4BBA BAA4z2  | 
w:   |   | 
d2=e2 e2e4ea e2e6  | =e4 d2d3c_7/8ed c_1/4Bc4z2  | \
w:   |   | 
^f2g2 g2g4g2 f2gf _7/8ede2  | 
w:   | 
_bag^f _7/8e2e2 d2g4gf edc_1/4B  | \
w:   | 
c3_1/4B ^f_7/8edc2BBA BAA4z2  | 
w:   | 
g4 d2g4ac' _bag^f g4  | g3^f f2f3_7/8ed4a2 a2gf  | \
w:   |   | 
g2^f_7/8e dced c_1/4Bc4B2 c2d2  | 
w:   | 
_7/8e2^f2 g2a_1/4b c'd'c'_b agfe d2c'2  | \
w:   | 
_baag g^ff_7/8e edd4z2 e4  | 
w:   | 
_7/8ede4de ^fgfe d4 feed  | c2^f2 _7/8eddc c_1/4BcB A4 d2e2  | 
w:   |   | 
^f2_7/8ed c2ed c_1/4Bc4B2 A2B2  | \
w:   | 
c2d2 _7/8e2^fg a_bag fedc c3_1/4B  | 
w:   | 
^f_7/8edc2_1/4BBA BAA4z2 =e2dc  | \
w:   | 
c2c3_1/4BBA G2c4=e2 d3c  | 
w:   | 
c2c3_1/4BBA BAA4z2 d2=e2  | =e2e4ea e2e6 e4  | \
w:   |   | 
d2d3c_7/8ed c_1/4Bc4z2 ^f2g2  | 
w:   | 
g2g4g2 ^f2gf _7/8ede2 _bagf  | _7/8e2e2 d2g4g^f edc_1/4B c3B  | 
w:   |   | 
^f_7/8edc2_1/4BBA BAA4z2 |
w:   | 


